X:1
T:Hymn 213 What Child Is This
T:Matthew 2:2 Where is the one who has been born king of the Jews?
T:English melody 16th century
T:Traditional English carol
%%score [ 1 2 3 4 ]
L:1/8
M:6/8
K:G
V:1 treble nm="Soprano" snm="S"
V:2 treble nm="Alto" snm="A"
V:3 bass nm="Tenor" snm="T"
V:4 bass nm="Bass" snm="B"
V:1
 E | G2 A B>cB | A2 F D>EF | G2 E E>^DE | F3 B,2 E | G2 A B>cB | A2 F D>EF | G>FE ^D>^CD | E3 E3 | %9
 d3 d>^cB | A2 F D>EF | G2 E E>^DE | F2 D B,3 | d3 d>^cB | A2 F D>EF | G>FE ^D>^CD | E3 E3 |] %17
V:2
 B, | E2 D D2 G | F2 D D>EC | B,2 B, A,2 E | ^D3 B,2 B, | E2 D D2 G | F2 D D>EC | B,2 C B,2 B, | %8
 B,3 B,3 | F3 B>AG | F2 D D>EC | B,2 B, A,2 A, | ^D2 B, B,3 | F3 B>AG | F2 D D>EC | B,2 C B,2 B, | %16
 B,3 B,3 |] %17
V:3
 G, | B,2 A, G,2 B, | D2 A, F,2 A, | G,2 G, E,2 E, | B,3 B,2 G, | B,2 A, G,2 B, | D2 A, F,2 A, | %7
 G,2 A, F,2 F, | G,3 G,3 | B,3 D2 D | D2 A, F,2 A, | G,2 G, A,2 E, | B,2 F, B,3 | B,3 D2 D | %14
 D2 A, F,2 A, | G,2 A, F,2 F, | A,3 G,3 |] %17
V:4
 E, | E,2 F, G,2 G, | D,2 D, D,2 ^D, | E,2 E, C,2 C, | B,,3 B,2 E, | E,2 F, G,2 G, | %6
 D,2 D, D,2 ^D, | E,2 A,, B,,2 B,, | E,3 E,3 | B,3 G,2 G, | D,2 D, D,2 ^D, | E,2 E, C,2 C, | %12
 B,,2 B,, B,,3 | B,3 G,2 G, | D,2 D, D,2 ^D, | E,2 A,, B,,2 B,, | E,3 E,3 |] %17

